X: 38513
T: Stella Splendens
R: polka
M: 2/4
K: Gmajor
|:BB/A/ BG|EG A2|c/B/G/A/ FE|GA B/G/E|D2 BB/A/|
BG EG|A2 c/B/G/A/|FE GA|1 B/G/E/D/ E/F/G/A/:|2 B/G/E/D/ EG/F/|E2 z2||
K:D
Bc ec|BA cd|BA/G/ F3/2E/|Bc ef/e/|dc/B/ AG/F/|
E2 EB/E/|Bc ec|BA cd|Bc/d/ ef/e/|dc/d/ B2|A/G/F/G/ AG/F/||

